X:1
T:Standin In The Need of Prayer
T:A little more faith in Jesus
T:Copyright 1881 by The Riverside Press
T:Rodeheaver's Plantation Melodies
T:Rodeheaver's Plantation Melodies
Z:Rodeheaver's Plantation Melodies
%%score [ 1 2 3 4 ]
L:1/8
Q:1/4=100
M:4/4
K:Bb
V:1 treble nm="Soprano" snm="S."
V:2 treble nm="Alto" snm="A."
V:3 bass nm="Tenor" snm="T."
V:4 bass nm="Bass" snm="B."
V:1
 G2 GF D2 z2 | B2 c2 d2 z2 | G2 GF D2 z D/D/ | D/D/D ^FF GG :| z G/ | G/G/G G | GG GF/DD/ | %7
 D/D/D ^FF G z2 G | GGGG GG F/DD/ | D/D/D ^FF GG z2!D.C.! |] %10
V:2
 G2 GF D2 z2 | B2 c2 d2 z2 | G2 GF D2 z D/D/ | D/D/D ^FF GG :| z G/ | G/G/G G | GG GF/DD/ | %7
w: All I- * want.|All I want.|All I * * is a|lit- tle more faith in Je- sus.|When-|ev- er we meet|you here we say. A lit-|
 D/D/D ^FF G z2 G | GGGG GG F/DD/ | D/D/D ^FF GG z2 |] %10
w: tle more faith in Je- sus. Pray|what's the or- der of the day- ? A|lit- tle more faith in Je- sus.|
V:3
 G,2 G,F, D,2 z2 | B,2 C2 D2 z2 | D2 C2 B,2 z D/D/ | D/D/D CC B,B, :| z z/ | z2 z | z2 z z3/2 D/ | %7
 D/D/D CC B,B, z2 | z2 z2 z2 z3/2 D/ | D/D/D CC B,B, z2 |] %10
V:4
 G,2 G,F, D,2 z2 | G,2 A,2 B,2 z2 | B,2 A,2 G,2 z B,/B,/ | B,/B,/B, A,D, G,G, :| z z/ | z3 | %6
 z2 z z3/2 D,/ | D,/D,/D, ^F,F, G,G, z2 | z2 z2 z2 z3/2 D,/ | D,/D,/D, ^F,F, G,G, z2 |] %10

